agir/front/components/allPages/feedback-form-button.svg

<svg width="60" height="59" viewBox="0 0 60 59" fill="none" xmlns="http://www.w3.org/2000/svg">
<g filter="url(#filter0_dd)">
<path d="M3.5 29.5C3.5 14.8645 15.3645 3 30 3V3C44.6355 3 56.5 14.8645 56.5 29.5V29.5C56.5 44.1355 44.6355 56 30 56V56C15.3645 56 3.5 44.1355 3.5 29.5V29.5Z" fill="white"/>
</g>
<path d="M33.093 18.953C33.4514 18.1812 34.5486 18.1812 34.907 18.953L38.2987 26.2563C38.4444 26.57 38.7419 26.7862 39.0853 26.8278L47.0793 27.7966C47.924 27.899 48.263 28.9425 47.6398 29.5218L41.742 35.0043C41.4887 35.2399 41.375 35.5896 41.4416 35.9291L42.9904 43.8312C43.1541 44.6662 42.2665 45.3111 41.5229 44.8974L34.4862 40.9825C34.1839 40.8143 33.8161 40.8143 33.5138 40.9825L26.4771 44.8974C25.7335 45.3111 24.8459 44.6662 25.0096 43.8312L26.5584 35.9291C26.625 35.5896 26.5113 35.2399 26.258 35.0043L20.3602 29.5218C19.737 28.9425 20.076 27.899 20.9207 27.7966L28.9147 26.8278C29.2581 26.7862 29.5556 26.57 29.7013 26.2563L33.093 18.953Z" fill="#F4ED0F"/>
<path d="M30.2267 17.2689L33.6184 24.5722C33.8734 25.1212 34.3941 25.4995 34.9951 25.5724L42.989 26.5412C43.2002 26.5668 43.285 26.8277 43.1292 26.9725L37.2314 32.455C36.788 32.8672 36.5891 33.4793 36.7056 34.0734L38.2544 41.9754C38.2953 42.1842 38.0734 42.3454 37.8875 42.242L30.8508 38.3271C30.3218 38.0328 29.6782 38.0328 29.1492 38.3271L22.1125 42.242C21.9266 42.3454 21.7047 42.1842 21.7456 41.9754L23.2944 34.0734C23.4109 33.4793 23.212 32.8672 22.7686 32.455L16.8708 26.9725C16.715 26.8277 16.7998 26.5668 17.011 26.5412L25.0049 25.5724C25.6059 25.4995 26.1266 25.1212 26.3816 24.5722L29.7733 17.2689C29.8629 17.0759 30.1371 17.0759 30.2267 17.2689Z" stroke="black" stroke-width="1.5"/>
<defs>
<filter id="filter0_dd" x="0.5" y="0" width="59" height="59" filterUnits="userSpaceOnUse" color-interpolation-filters="sRGB">
<feFlood flood-opacity="0" result="BackgroundImageFix"/>
<feColorMatrix in="SourceAlpha" type="matrix" values="0 0 0 0 0 0 0 0 0 0 0 0 0 0 0 0 0 0 127 0"/>
<feOffset dy="2"/>
<feColorMatrix type="matrix" values="0 0 0 0 0 0 0 0 0 0.137255 0 0 0 0 0.172549 0 0 0 0.28 0"/>
<feBlend mode="normal" in2="BackgroundImageFix" result="effect1_dropShadow"/>
<feColorMatrix in="SourceAlpha" type="matrix" values="0 0 0 0 0 0 0 0 0 0 0 0 0 0 0 0 0 0 127 0"/>
<feOffset/>
<feGaussianBlur stdDeviation="1.5"/>
<feColorMatrix type="matrix" values="0 0 0 0 0 0 0 0 0 0.137255 0 0 0 0 0.172549 0 0 0 0.3 0"/>
<feBlend mode="normal" in2="effect1_dropShadow" result="effect2_dropShadow"/>
<feBlend mode="normal" in="SourceGraphic" in2="effect2_dropShadow" result="shape"/>
</filter>
</defs>
</svg>

<svg width="60" height="59" fill="none" xmlns="http://www.w3.org/2000/svg"><g filter="url(#a)"><path d="M3.5 29.5C3.5 14.864 15.364 3 30 3s26.5 11.864 26.5 26.5S44.636 56 30 56 3.5 44.136 3.5 29.5Z" fill="#fff"/></g><path d="M33.093 18.953a1 1 0 0 1 1.814 0l3.392 7.303a1 1 0 0 0 .786.572l7.994.969a1 1 0 0 1 .56 1.725l-5.897 5.482a1 1 0 0 0-.3.925l1.548 7.902a1 1 0 0 1-1.467 1.066l-7.037-3.914a1 1 0 0 0-.972 0l-7.037 3.914a1 1 0 0 1-1.467-1.066l1.548-7.902a1 1 0 0 0-.3-.925l-5.898-5.482a1 1 0 0 1 .56-1.725l7.995-.97a1 1 0 0 0 .786-.57l3.392-7.304Z" fill="#F4ED0F"/><path d="m30.227 17.269 3.391 7.303a1.75 1.75 0 0 0 1.377 1l7.994.97a.25.25 0 0 1 .14.43l-5.898 5.483a1.75 1.75 0 0 0-.525 1.618l1.548 7.902a.25.25 0 0 1-.366.267l-7.037-3.915a1.75 1.75 0 0 0-1.702 0l-7.037 3.915a.25.25 0 0 1-.366-.267l1.548-7.902a1.75 1.75 0 0 0-.525-1.618l-5.898-5.482a.25.25 0 0 1 .14-.432l7.994-.969a1.75 1.75 0 0 0 1.377-1l3.391-7.303a.25.25 0 0 1 .454 0Z" stroke="#000" stroke-width="1.5"/><defs><filter id="a" x=".5" y="0" width="59" height="59" filterUnits="userSpaceOnUse" color-interpolation-filters="sRGB"><feFlood flood-opacity="0" result="BackgroundImageFix"/><feColorMatrix in="SourceAlpha" values="0 0 0 0 0 0 0 0 0 0 0 0 0 0 0 0 0 0 127 0"/><feOffset dy="2"/><feColorMatrix values="0 0 0 0 0 0 0 0 0 0.137255 0 0 0 0 0.172549 0 0 0 0.28 0"/><feBlend in2="BackgroundImageFix" result="effect1_dropShadow"/><feColorMatrix in="SourceAlpha" values="0 0 0 0 0 0 0 0 0 0 0 0 0 0 0 0 0 0 127 0"/><feOffset/><feGaussianBlur stdDeviation="1.5"/><feColorMatrix values="0 0 0 0 0 0 0 0 0 0.137255 0 0 0 0 0.172549 0 0 0 0.3 0"/><feBlend in2="effect1_dropShadow" result="effect2_dropShadow"/><feBlend in="SourceGraphic" in2="effect2_dropShadow" result="shape"/></filter></defs></svg>
